imgs/chrome-web-store.svg

<svg width="29" height="24" viewBox="0 0 29 24" fill="none" xmlns="http://www.w3.org/2000/svg">
<mask id="mask0" mask-type="alpha" maskUnits="userSpaceOnUse" x="0" y="0" width="29" height="24">
<path d="M0 0V21.918C0.003 22.954 0.858 23.793 1.915 23.798H26.185C27.242 23.793 28.097 22.954 28.1 21.918V0H0ZM17.243 5H10.87C10.166 5 9.595 4.44 9.595 3.75C9.595 3.06 10.166 2.5 10.87 2.5H17.244C17.949 2.5 18.519 3.06 18.519 3.75C18.519 4.44 17.949 5 17.244 5H17.243Z" fill="white"/>
</mask>
<g mask="url(#mask0)">
<mask id="mask1" mask-type="alpha" maskUnits="userSpaceOnUse" x="1" y="10" width="26" height="24">
<path d="M14.0522 33.815C20.7536 33.815 26.1862 28.4881 26.1862 21.917C26.1862 15.3459 20.7536 10.019 14.0522 10.019C7.35079 10.019 1.91821 15.3459 1.91821 21.917C1.91821 28.4881 7.35079 33.815 14.0522 33.815Z" fill="white"/>
</mask>
<g mask="url(#mask1)">
<path d="M3.84521 10.02V24.62H9.27622L14.0522 16.51H26.1882V10.01L3.84521 10.02ZM3.84521 10.02V24.62H9.27622L14.0522 16.51H26.1882V10.01L3.84521 10.02Z" fill="#DB4437"/>
<path d="M1.91821 33.815H13.4682L18.8222 28.565V24.62H9.27621L1.91821 12.25V33.815ZM1.91821 33.815H13.4682L18.8222 28.565V24.62H9.27621L1.91821 12.25V33.815Z" fill="#0F9D58"/>
<path d="M14.0521 16.51L18.8301 24.62L13.4751 33.812H26.1931V16.51H14.0521ZM14.0521 16.51L18.8301 24.62L13.4751 33.812H26.1931V16.51H14.0521Z" fill="#FFCD40"/>
<path d="M14.0522 27.327C17.0997 27.327 19.5702 24.9049 19.5702 21.917C19.5702 18.9292 17.0997 16.507 14.0522 16.507C11.0047 16.507 8.53418 18.9292 8.53418 21.917C8.53418 24.9049 11.0047 27.327 14.0522 27.327Z" fill="#F1F1F1"/>
<path d="M14.0522 26.244C16.4894 26.244 18.4652 24.3068 18.4652 21.917C18.4652 19.5273 16.4894 17.59 14.0522 17.59C11.6149 17.59 9.63916 19.5273 9.63916 21.917C9.63916 24.3068 11.6149 26.244 14.0522 26.244Z" fill="#4285F4"/>
</g>
<mask id="mask2" mask-type="alpha" maskUnits="userSpaceOnUse" x="0" y="0" width="29" height="24">
<path d="M0 0V21.918C0.003 22.954 0.858 23.793 1.915 23.798H26.185C27.242 23.793 28.097 22.954 28.1 21.918V0H0ZM17.243 5H10.87C10.166 5 9.595 4.44 9.595 3.75C9.595 3.06 10.166 2.5 10.87 2.5H17.244C17.949 2.5 18.519 3.06 18.519 3.75C18.519 4.44 17.949 5 17.244 5H17.243Z" fill="white"/>
</mask>
<g mask="url(#mask2)">
<path d="M0 0H28.103V11.897H0V0Z" fill="#212121" fill-opacity="0.05"/>
</g>
<path d="M0 11.743H28.103V11.898H0V11.743Z" fill="#212121" fill-opacity="0.02"/>
<path d="M0 11.897H28.103V12.055H0V11.897Z" fill="white" fill-opacity="0.05"/>
<path d="M17.246 5.01H10.872C10.5503 5.01341 10.2394 4.89412 10.0025 4.67639C9.76564 4.45866 9.62064 4.15886 9.597 3.838C9.58825 4.01018 9.61485 4.18233 9.67515 4.34384C9.73545 4.50535 9.82819 4.65281 9.94763 4.77713C10.0671 4.90144 10.2107 4.99999 10.3697 5.0667C10.5287 5.13341 10.6996 5.16686 10.872 5.165H17.246C17.4184 5.16686 17.5893 5.13341 17.7483 5.0667C17.9073 4.99999 18.0509 4.90144 18.1704 4.77713C18.2898 4.65281 18.3825 4.50535 18.4428 4.34384C18.5031 4.18233 18.5297 4.01018 18.521 3.838C18.479 4.498 17.921 5.011 17.246 5.01ZM0 0V0.158H28.103V0H0Z" fill="#212121" fill-opacity="0.02"/>
<path d="M10.86 2.50499H17.233C17.5553 2.50139 17.8667 2.62102 18.1037 2.83942C18.3407 3.05782 18.4853 3.35851 18.508 3.67999V3.60199C18.508 2.91199 17.938 2.35199 17.233 2.35199H10.86C10.156 2.35199 9.585 2.91199 9.585 3.60199V3.67999C9.625 3.01999 10.185 2.50399 10.86 2.50499ZM26.187 23.64H1.918C0.86 23.639 0.002 22.8 0 21.762V21.917C0.003 22.954 0.858 23.793 1.915 23.797H26.185C27.242 23.793 28.097 22.954 28.1 21.917V21.762C28.097 22.797 27.243 23.636 26.188 23.64H26.187Z" fill="#231F20" fill-opacity="0.1"/>
<path d="M0 0V21.918C0.003 22.954 0.858 23.793 1.915 23.798H26.185C27.242 23.793 28.097 22.954 28.1 21.918V0H0ZM17.243 5H10.869C10.165 5 9.594 4.44 9.594 3.75C9.594 3.06 10.165 2.5 10.869 2.5H17.243C17.947 2.5 18.518 3.06 18.518 3.75C18.518 4.44 17.948 5 17.243 5Z" fill="url(#paint0_radial)"/>
</g>
<defs>
<radialGradient id="paint0_radial" cx="0" cy="0" r="1" gradientUnits="userSpaceOnUse" gradientTransform="translate(-0.259479 -0.103044) scale(36.3378 36.3388)">
<stop stop-color="white" stop-opacity="0.1"/>
<stop offset="1" stop-color="white" stop-opacity="0"/>
</radialGradient>
</defs>
</svg>

<svg width="29" height="24" fill="none" xmlns="http://www.w3.org/2000/svg"><mask id="a" maskUnits="userSpaceOnUse" x="0" y="0" width="29" height="24"><path d="M0 0v21.918c.003 1.036.858 1.875 1.915 1.88h24.27c1.057-.005 1.912-.844 1.915-1.88V0H0zm17.243 5H10.87c-.704 0-1.275-.56-1.275-1.25s.571-1.25 1.275-1.25h6.374c.705 0 1.275.56 1.275 1.25S17.949 5 17.244 5h-.001z" fill="#fff"/></mask><g mask="url(#a)"><mask id="b" maskUnits="userSpaceOnUse" x="1" y="10" width="26" height="24"><path d="M14.052 33.815c6.702 0 12.134-5.327 12.134-11.898s-5.432-11.898-12.134-11.898c-6.701 0-12.134 5.327-12.134 11.898s5.433 11.898 12.134 11.898z" fill="#fff"/></mask><g mask="url(#b)"><path d="M3.845 10.02v14.6h5.431l4.776-8.11h12.136v-6.5l-22.343.01zm0 0v14.6h5.431l4.776-8.11h12.136v-6.5l-22.343.01z" fill="#DB4437"/><path d="M1.918 33.815h11.55l5.354-5.25V24.62H9.276L1.918 12.25v21.565zm0 0h11.55l5.354-5.25V24.62H9.276L1.918 12.25v21.565z" fill="#0F9D58"/><path d="M14.052 16.51l4.778 8.11-5.355 9.192h12.718V16.51h-12.14zm0 0l4.778 8.11-5.355 9.192h12.718V16.51h-12.14z" fill="#FFCD40"/><path d="M14.052 27.327c3.048 0 5.518-2.422 5.518-5.41s-2.47-5.41-5.518-5.41c-3.047 0-5.518 2.422-5.518 5.41s2.47 5.41 5.518 5.41z" fill="#F1F1F1"/><path d="M14.052 26.244c2.437 0 4.413-1.937 4.413-4.327 0-2.39-1.976-4.327-4.413-4.327-2.437 0-4.413 1.937-4.413 4.327 0 2.39 1.976 4.327 4.413 4.327z" fill="#4285F4"/></g><mask id="c" maskUnits="userSpaceOnUse" x="0" y="0" width="29" height="24"><path d="M0 0v21.918c.003 1.036.858 1.875 1.915 1.88h24.27c1.057-.005 1.912-.844 1.915-1.88V0H0zm17.243 5H10.87c-.704 0-1.275-.56-1.275-1.25s.571-1.25 1.275-1.25h6.374c.705 0 1.275.56 1.275 1.25S17.949 5 17.244 5h-.001z" fill="#fff"/></mask><g mask="url(#c)"><path d="M0 0h28.103v11.897H0V0z" fill="#212121" fill-opacity=".05"/></g><path d="M0 11.743h28.103v.155H0v-.155z" fill="#212121" fill-opacity=".02"/><path d="M0 11.897h28.103v.158H0v-.158z" fill="#fff" fill-opacity=".05"/><path d="M17.246 5.01h-6.374a1.265 1.265 0 01-1.275-1.172 1.263 1.263 0 001.275 1.327h6.374a1.263 1.263 0 001.275-1.327c-.042.66-.6 1.173-1.275 1.172zM0 0v.158h28.103V0H0z" fill="#212121" fill-opacity=".02"/><path d="M10.86 2.505h6.373a1.264 1.264 0 011.275 1.175v-.078c0-.69-.57-1.25-1.275-1.25H10.86c-.704 0-1.275.56-1.275 1.25v.078c.04-.66.6-1.176 1.275-1.175zM26.187 23.64H1.918C.86 23.639.002 22.8 0 21.762v.155c.003 1.037.858 1.876 1.915 1.88h24.27c1.057-.004 1.912-.843 1.915-1.88v-.155c-.003 1.035-.857 1.874-1.912 1.878h-.001z" fill="#231F20" fill-opacity=".1"/><path d="M0 0v21.918c.003 1.036.858 1.875 1.915 1.88h24.27c1.057-.005 1.912-.844 1.915-1.88V0H0zm17.243 5h-6.374c-.704 0-1.275-.56-1.275-1.25s.571-1.25 1.275-1.25h6.374c.704 0 1.275.56 1.275 1.25S17.948 5 17.243 5z" fill="url(#paint0_radial)"/></g><defs><radialGradient id="paint0_radial" cx="0" cy="0" r="1" gradientUnits="userSpaceOnUse" gradientTransform="matrix(36.3378 0 0 36.3388 -.26 -.103)"><stop stop-color="#fff" stop-opacity=".1"/><stop offset="1" stop-color="#fff" stop-opacity="0"/></radialGradient></defs></svg>
